assets/logo_light_mode.svg

<?xml version="1.0" encoding="UTF-8" standalone="no"?>
<svg
   width="7168"
   height="1024"
   viewBox="0 0 7168 1024"
   fill="none"
   version="1.1"
   id="svg30"
   sodipodi:docname="logo_light_mode.svg"
   inkscape:version="1.4.2 (ebf0e940, 2025-05-08)"
   xmlns:inkscape="http://www.inkscape.org/namespaces/inkscape"
   xmlns:sodipodi="http://sodipodi.sourceforge.net/DTD/sodipodi-0.dtd"
   xmlns="http://www.w3.org/2000/svg"
   xmlns:svg="http://www.w3.org/2000/svg">
  <sodipodi:namedview
     id="namedview30"
     pagecolor="#ffffff"
     bordercolor="#000000"
     borderopacity="0.25"
     inkscape:showpageshadow="2"
     inkscape:pageopacity="0.0"
     inkscape:pagecheckerboard="0"
     inkscape:deskcolor="#d1d1d1"
     inkscape:zoom="0.13898997"
     inkscape:cx="3475.0709"
     inkscape:cy="1151.1622"
     inkscape:window-width="1728"
     inkscape:window-height="965"
     inkscape:window-x="0"
     inkscape:window-y="38"
     inkscape:window-maximized="0"
     inkscape:current-layer="svg30" />
  <rect
     width="1024"
     height="1024"
     rx="120"
     fill="url(#paint0_linear_20_339)"
     id="rect1"
     x="0"
     y="0"
     style="fill:url(#paint0_linear_20_339)" />
  <rect
     x="543.62402"
     y="545.41101"
     width="280.535"
     height="278.74899"
     rx="5"
     fill="#ffffff"
     id="rect2" />
  <rect
     x="821.53601"
     y="589.82098"
     width="52.463799"
     height="69.951698"
     rx="2"
     fill="#ffffff"
     id="rect3" />
  <rect
     x="821.53601"
     y="709.61298"
     width="52.463799"
     height="69.951698"
     rx="2"
     fill="#ffffff"
     id="rect4" />
  <rect
     x="-873.125"
     y="588.07202"
     width="52.463799"
     height="69.951698"
     rx="2"
     transform="rotate(-90)"
     fill="#ffffff"
     id="rect5" />
  <rect
     x="-873.125"
     y="709.61401"
     width="52.463799"
     height="69.951698"
     rx="2"
     transform="rotate(-90)"
     fill="#ffffff"
     id="rect6" />
  <path
     d="M 641.143,744.517 H 772.06 v 41.812 H 597.059 V 545.411 h 44.084 z"
     fill="#5130ab"
     id="path6" />
  <rect
     width="280.535"
     height="278.74899"
     rx="5"
     transform="scale(-1,1)"
     fill="#ffffff"
     id="rect7"
     x="-479.50201"
     y="545.41101" />
  <path
     d="M 381.982,744.517 H 251.066 v 41.812 h 175 V 545.411 h -44.084 z"
     fill="#5130ab"
     id="path7" />
  <rect
     x="150"
     y="589.82098"
     width="52.463799"
     height="69.951698"
     rx="2"
     fill="#ffffff"
     id="rect8" />
  <rect
     x="150"
     y="708.73901"
     width="52.463799"
     height="69.951698"
     rx="2"
     fill="#ffffff"
     id="rect9" />
  <rect
     x="-873.125"
     y="243.56"
     width="52.463799"
     height="69.951698"
     rx="2"
     transform="rotate(-90)"
     fill="#ffffff"
     id="rect10" />
  <rect
     x="-873.125"
     y="365.10101"
     width="52.463799"
     height="69.951698"
     rx="2"
     transform="rotate(-90)"
     fill="#ffffff"
     id="rect11" />
  <rect
     x="543.62402"
     y="198.966"
     width="280.535"
     height="278.74899"
     rx="5"
     fill="#ffffff"
     id="rect12" />
  <path
     d="m 719.293,449.203 -56.775,-86.28 h -21.374 v 86.28 H 597.06 V 226.841 h 83.412 c 17.313,0 32.061,3.079 44.245,9.238 12.183,5.947 21.267,14.124 27.252,24.53 6.198,10.194 9.297,21.663 9.297,34.406 0,14.654 -4.274,27.928 -12.824,39.821 -8.55,11.681 -21.267,19.751 -38.153,24.211 l 61.104,90.156 z M 641.144,329.739 h 38.073 c 12.183,0 20.919,-3.504 26.904,-9.239 5.985,-5.946 8.977,-14.123 8.977,-24.53 0,-10.194 -2.992,-18.052 -8.977,-23.574 -5.985,-5.734 -15.069,-8.601 -27.252,-8.601 h -37.725 z"
     fill="#5130ab"
     id="path12" />
  <path
     d="m 543.624,363.561 v -33.185 h 121.565 v 33.185 z"
     fill="#5130ab"
     id="path13" />
  <path
     d="m 597.06,447.185 h 44.084 v 30.53 H 597.06 Z"
     fill="#5130ab"
     id="path14" />
  <rect
     x="821.53601"
     y="243.56"
     width="52.463799"
     height="69.951698"
     rx="2"
     fill="#ffffff"
     id="rect14" />
  <rect
     x="821.53601"
     y="363.353"
     width="52.463799"
     height="69.951698"
     rx="2"
     fill="#ffffff"
     id="rect15" />
  <path
     d="m 590.072,202.464 c -1.104,0 -2,-0.896 -2,-2 V 152 c 0,-1.104 0.896,-2 2,-2 h 65.952 c 1.105,0 2,0.896 2,2 v 48.464 c 0,1.104 -0.895,2 -2,2 z"
     fill="#ffffff"
     id="path15" />
  <rect
     x="-202.46402"
     y="710.48798"
     width="52.463799"
     height="69.951698"
     rx="2"
     transform="rotate(-90)"
     fill="#ffffff"
     id="rect16" />
  <rect
     width="280.535"
     height="278.74899"
     rx="5"
     transform="scale(-1,1)"
     fill="#ffffff"
     id="rect17"
     x="-479.50201"
     y="198.966" />
  <path
     d="m 303.833,449.203 56.775,-86.28 h 21.374 v 86.28 h 44.084 V 226.841 h -83.412 c -17.314,0 -32.062,3.079 -44.245,9.238 -12.183,5.947 -21.267,14.124 -27.252,24.53 -6.198,10.194 -9.298,21.663 -9.298,34.406 0,14.654 4.275,27.928 12.825,39.821 8.549,11.681 21.267,19.751 38.153,24.211 l -61.104,90.156 z m 78.149,-119.464 h -38.073 c -12.183,0 -20.92,-3.504 -26.904,-9.239 -5.985,-5.946 -8.978,-14.123 -8.978,-24.53 0,-10.194 2.993,-18.052 8.978,-23.574 5.984,-5.734 15.068,-8.601 27.252,-8.601 h 37.725 z"
     fill="#5130ab"
     id="path17" />
  <path
     d="M 479.501,363.561 V 330.376 H 357.936 v 33.185 z"
     fill="#5130ab"
     id="path18" />
  <path
     d="m 426.066,429.93 h -44.084 v 47.785 h 44.084 z"
     fill="#5130ab"
     id="path19" />
  <rect
     x="150"
     y="243.56"
     width="52.463799"
     height="69.951698"
     rx="2"
     fill="#ffffff"
     id="rect19" />
  <rect
     x="150"
     y="363.353"
     width="52.463799"
     height="69.951698"
     rx="2"
     fill="#ffffff"
     id="rect20" />
  <rect
     x="-202.464"
     y="243.56"
     width="52.463799"
     height="69.951698"
     rx="2"
     transform="rotate(-90)"
     fill="#ffffff"
     id="rect21" />
  <rect
     x="-202.46399"
     y="365.10101"
     width="52.463799"
     height="69.951698"
     rx="2"
     transform="rotate(-90)"
     fill="#ffffff"
     id="rect22" />
  <rect
     x="479.50201"
     y="317.103"
     width="64.122398"
     height="61.0592"
     fill="#ffffff"
     id="rect23" />
  <rect
     x="479.50201"
     y="330.37701"
     width="64.122398"
     height="33.184399"
     fill="#5130ab"
     id="rect24" />
  <rect
     x="372.63101"
     y="477.715"
     width="62.786499"
     height="67.696098"
     fill="#ffffff"
     id="rect25" />
  <rect
     x="243.56"
     y="477.715"
     width="62.786499"
     height="67.696098"
     fill="#ffffff"
     id="rect26" />
  <path
     d="m 426.066,477.715 h -44.084 v 67.696 h 44.084 z"
     fill="#5130ab"
     id="path26" />
  <rect
     x="587.70801"
     y="477.715"
     width="62.786499"
     height="67.696098"
     fill="#ffffff"
     id="rect27" />
  <rect
     x="716.60901"
     y="477.715"
     width="62.786499"
     height="67.696098"
     fill="#ffffff"
     id="rect28" />
  <path
     d="m 597.059,477.715 h 44.084 v 67.696 h -44.084 z"
     fill="#5130ab"
     id="path28" />
  <defs
     id="defs30">
    <rect
       x="1065.6685"
       y="135.13911"
       width="3023.2549"
       height="749.05676"
       id="rect13" />
    <linearGradient
       id="paint0_linear_20_339"
       x1="512"
       y1="0"
       x2="512"
       y2="1024"
       gradientUnits="userSpaceOnUse">
      <stop
         stop-color="#5130AB"
         id="stop29" />
      <stop
         offset="1"
         stop-color="#3F3261"
         id="stop30" />
    </linearGradient>
  </defs>
  <text
     xml:space="preserve"
     id="text1"
     style="text-align:start;writing-mode:lr-tb;direction:ltr;white-space:pre;shape-inside:url(#rect13);display:inline;fill:#000000" />
  <text
     xml:space="preserve"
     style="font-style:normal;font-variant:normal;font-weight:bold;font-stretch:normal;font-size:682.667px;font-family:Helvetica;-inkscape-font-specification:'Helvetica, Bold';font-variant-ligatures:normal;font-variant-caps:normal;font-variant-numeric:normal;font-variant-east-asian:normal;text-align:start;writing-mode:lr-tb;direction:ltr;text-anchor:start;white-space:pre;inline-size:4724.19;display:inline;fill:#000000"
     x="1301.1965"
     y="312.75049"
     id="text14"
     transform="matrix(1.4066126,0,0,1.4028281,-674.53249,364.40785)"><tspan
       x="1301.1965"
       y="312.75049"
       id="tspan2"><tspan
         dx="0 0 0 0 0 0 0 0.00015258789"
         id="tspan1">runlocal_hub</tspan></tspan></text>
</svg>

<svg width="4280" height="1024" viewBox="0 0 4280 1024" fill="none" xmlns="http://www.w3.org/2000/svg">
<rect width="1024" height="1024" rx="120" fill="url(#paint0_linear_20_339)"/>
<rect x="543.624" y="545.411" width="280.535" height="278.749" rx="5" fill="white"/>
<rect x="821.536" y="589.821" width="52.4638" height="69.9517" rx="2" fill="white"/>
<rect x="821.536" y="709.614" width="52.4638" height="69.9517" rx="2" fill="white"/>
<rect x="588.072" y="873.125" width="52.4638" height="69.9517" rx="2" transform="rotate(-90 588.072 873.125)" fill="white"/>
<rect x="709.614" y="873.125" width="52.4638" height="69.9517" rx="2" transform="rotate(-90 709.614 873.125)" fill="white"/>
<path d="M641.143 744.517H772.06V786.329H597.059V545.411H641.143V744.517Z" fill="#5130AB"/>
<rect width="280.535" height="278.749" rx="5" transform="matrix(-1 0 0 1 479.502 545.411)" fill="white"/>
<path d="M381.982 744.517H251.066V786.329H426.066V545.411H381.982V744.517Z" fill="#5130AB"/>
<rect x="150" y="589.821" width="52.4638" height="69.9517" rx="2" fill="white"/>
<rect x="150" y="708.739" width="52.4638" height="69.9517" rx="2" fill="white"/>
<rect x="243.56" y="873.125" width="52.4638" height="69.9517" rx="2" transform="rotate(-90 243.56 873.125)" fill="white"/>
<rect x="365.101" y="873.125" width="52.4638" height="69.9517" rx="2" transform="rotate(-90 365.101 873.125)" fill="white"/>
<rect x="543.624" y="198.966" width="280.535" height="278.749" rx="5" fill="white"/>
<path d="M719.293 449.203L662.518 362.923H641.144V449.203H597.06V226.841H680.472C697.785 226.841 712.533 229.92 724.717 236.079C736.9 242.026 745.984 250.203 751.969 260.609C758.167 270.803 761.266 282.272 761.266 295.015C761.266 309.669 756.992 322.943 748.442 334.836C739.892 346.517 727.175 354.587 710.289 359.047L771.393 449.203H719.293ZM641.144 329.739H679.217C691.4 329.739 700.136 326.235 706.121 320.5C712.106 314.554 715.098 306.377 715.098 295.97C715.098 285.776 712.106 277.918 706.121 272.396C700.136 266.662 691.052 263.795 678.869 263.795H641.144L641.144 329.739Z" fill="#5130AB"/>
<path d="M543.624 363.561V330.376L665.189 330.376V363.561L543.624 363.561Z" fill="#5130AB"/>
<path d="M597.06 447.185H641.144V477.715H597.06V447.185Z" fill="#5130AB"/>
<rect x="821.536" y="243.56" width="52.4638" height="69.9517" rx="2" fill="white"/>
<rect x="821.536" y="363.353" width="52.4638" height="69.9517" rx="2" fill="white"/>
<path d="M590.072 202.464C588.968 202.464 588.072 201.568 588.072 200.464L588.072 152C588.072 150.896 588.968 150 590.072 150L656.024 150C657.129 150 658.024 150.896 658.024 152L658.024 200.464C658.024 201.568 657.129 202.464 656.024 202.464L590.072 202.464Z" fill="white"/>
<rect x="710.488" y="202.464" width="52.4638" height="69.9517" rx="2" transform="rotate(-90 710.488 202.464)" fill="white"/>
<rect width="280.535" height="278.749" rx="5" transform="matrix(-1 0 0 1 479.502 198.966)" fill="white"/>
<path d="M303.833 449.203L360.608 362.923H381.982V449.203H426.066V226.841H342.654C325.34 226.841 310.592 229.92 298.409 236.079C286.226 242.026 277.142 250.203 271.157 260.609C264.959 270.803 261.859 282.272 261.859 295.015C261.859 309.669 266.134 322.943 274.684 334.836C283.233 346.517 295.951 354.587 312.837 359.047L251.733 449.203H303.833ZM381.982 329.739H343.909C331.726 329.739 322.989 326.235 317.005 320.5C311.02 314.554 308.027 306.377 308.027 295.97C308.027 285.776 311.02 277.918 317.005 272.396C322.989 266.662 332.073 263.795 344.257 263.795H381.982L381.982 329.739Z" fill="#5130AB"/>
<path d="M479.501 363.561V330.376L357.936 330.376V363.561L479.501 363.561Z" fill="#5130AB"/>
<path d="M426.066 429.93H381.982V477.715H426.066V429.93Z" fill="#5130AB"/>
<rect x="150" y="243.56" width="52.4638" height="69.9517" rx="2" fill="white"/>
<rect x="150" y="363.353" width="52.4638" height="69.9517" rx="2" fill="white"/>
<rect x="243.56" y="202.464" width="52.4638" height="69.9517" rx="2" transform="rotate(-90 243.56 202.464)" fill="white"/>
<rect x="365.101" y="202.464" width="52.4638" height="69.9517" rx="2" transform="rotate(-90 365.101 202.464)" fill="white"/>
<rect x="479.502" y="317.103" width="64.1224" height="61.0592" fill="white"/>
<rect x="479.502" y="330.377" width="64.1224" height="33.1844" fill="#5130AB"/>
<rect x="372.631" y="477.715" width="62.7865" height="67.6961" fill="white"/>
<rect x="243.56" y="477.715" width="62.7865" height="67.6961" fill="white"/>
<path d="M426.066 477.715H381.982V545.411H426.066V477.715Z" fill="#5130AB"/>
<rect x="587.708" y="477.715" width="62.7865" height="67.6961" fill="white"/>
<rect x="716.609" y="477.715" width="62.7865" height="67.6961" fill="white"/>
<path d="M597.059 477.715H641.143V545.411H597.059V477.715Z" fill="#5130AB"/>
<path d="M1556.85 740L1456.75 563.2H1413.85V740H1322.85V286.3H1493.15C1528.25 286.3 1558.15 292.583 1582.85 305.15C1607.55 317.283 1625.97 333.967 1638.1 355.2C1650.67 376 1656.95 399.4 1656.95 425.4C1656.95 455.3 1648.28 482.383 1630.95 506.65C1613.62 530.483 1587.83 546.95 1553.6 556.05L1662.15 740H1556.85ZM1413.85 494.95H1489.9C1514.6 494.95 1533.02 489.1 1545.15 477.4C1557.28 465.267 1563.35 448.583 1563.35 427.35C1563.35 406.55 1557.28 390.517 1545.15 379.25C1533.02 367.55 1514.6 361.7 1489.9 361.7H1413.85V494.95ZM2079.21 379.9V740H1987.56V694.5C1975.86 710.1 1960.47 722.45 1941.41 731.55C1922.77 740.217 1902.41 744.55 1880.31 744.55C1852.14 744.55 1827.22 738.7 1805.56 727C1783.89 714.867 1766.77 697.317 1754.21 674.35C1742.07 650.95 1736.01 623.217 1736.01 591.15V379.9H1827.01V578.15C1827.01 606.75 1834.16 628.85 1848.46 644.45C1862.76 659.617 1882.26 667.2 1906.96 667.2C1932.09 667.2 1951.81 659.617 1966.11 644.45C1980.41 628.85 1987.56 606.75 1987.56 578.15V379.9H2079.21ZM2368.54 374.7C2411.44 374.7 2446.11 388.35 2472.54 415.65C2498.98 442.517 2512.19 480.217 2512.19 528.75V740H2421.19V541.1C2421.19 512.5 2414.04 490.617 2399.74 475.45C2385.44 459.85 2365.94 452.05 2341.24 452.05C2316.11 452.05 2296.18 459.85 2281.44 475.45C2267.14 490.617 2259.99 512.5 2259.99 541.1V740H2168.99V379.9H2259.99V424.75C2272.13 409.15 2287.51 397.017 2306.14 388.35C2325.21 379.25 2346.01 374.7 2368.54 374.7ZM2689.73 667.85H2839.23V740H2598.73V286.3H2689.73V667.85ZM3056.97 745.85C3022.3 745.85 2991.1 738.267 2963.37 723.1C2935.64 707.5 2913.75 685.617 2897.72 657.45C2882.12 629.283 2874.32 596.783 2874.32 559.95C2874.32 523.117 2882.34 490.617 2898.37 462.45C2914.84 434.283 2937.15 412.617 2965.32 397.45C2993.49 381.85 3024.9 374.05 3059.57 374.05C3094.24 374.05 3125.65 381.85 3153.82 397.45C3181.99 412.617 3204.09 434.283 3220.12 462.45C3236.59 490.617 3244.82 523.117 3244.82 559.95C3244.82 596.783 3236.37 629.283 3219.47 657.45C3203 685.617 3180.47 707.5 3151.87 723.1C3123.7 738.267 3092.07 745.85 3056.97 745.85ZM3056.97 666.55C3073.44 666.55 3088.82 662.65 3103.12 654.85C3117.85 646.617 3129.55 634.483 3138.22 618.45C3146.89 602.417 3151.22 582.917 3151.22 559.95C3151.22 525.717 3142.12 499.5 3123.92 481.3C3106.15 462.667 3084.27 453.35 3058.27 453.35C3032.27 453.35 3010.39 462.667 2992.62 481.3C2975.29 499.5 2966.62 525.717 2966.62 559.95C2966.62 594.183 2975.07 620.617 2991.97 639.25C3009.3 657.45 3030.97 666.55 3056.97 666.55ZM3288.17 559.95C3288.17 522.683 3295.75 490.183 3310.92 462.45C3326.09 434.283 3347.1 412.617 3373.97 397.45C3400.84 381.85 3431.6 374.05 3466.27 374.05C3510.9 374.05 3547.74 385.317 3576.77 407.85C3606.24 429.95 3625.95 461.15 3635.92 501.45H3537.77C3532.57 485.85 3523.69 473.717 3511.12 465.05C3498.99 455.95 3483.82 451.4 3465.62 451.4C3439.62 451.4 3419.04 460.933 3403.87 480C3388.7 498.633 3381.12 525.283 3381.12 559.95C3381.12 594.183 3388.7 620.833 3403.87 639.9C3419.04 658.533 3439.62 667.85 3465.62 667.85C3502.45 667.85 3526.5 651.383 3537.77 618.45H3635.92C3625.95 657.45 3606.24 688.433 3576.77 711.4C3547.3 734.367 3510.47 745.85 3466.27 745.85C3431.6 745.85 3400.84 738.267 3373.97 723.1C3347.1 707.5 3326.09 685.833 3310.92 658.1C3295.75 629.933 3288.17 597.217 3288.17 559.95ZM3679.19 558.65C3679.19 522.25 3686.34 489.967 3700.64 461.8C3715.37 433.633 3735.09 411.967 3759.79 396.8C3784.92 381.633 3812.87 374.05 3843.64 374.05C3870.5 374.05 3893.9 379.467 3913.84 390.3C3934.2 401.133 3950.45 414.783 3962.59 431.25V379.9H4054.24V740H3962.59V687.35C3950.89 704.25 3934.64 718.333 3913.84 729.6C3893.47 740.433 3869.85 745.85 3842.99 745.85C3812.65 745.85 3784.92 738.05 3759.79 722.45C3735.09 706.85 3715.37 684.967 3700.64 656.8C3686.34 628.2 3679.19 595.483 3679.19 558.65ZM3962.59 559.95C3962.59 537.85 3958.25 519 3949.59 503.4C3940.92 487.367 3929.22 475.233 3914.49 467C3899.75 458.333 3883.94 454 3867.04 454C3850.14 454 3834.54 458.117 3820.24 466.35C3805.94 474.583 3794.24 486.717 3785.14 502.75C3776.47 518.35 3772.14 536.983 3772.14 558.65C3772.14 580.317 3776.47 599.383 3785.14 615.85C3794.24 631.883 3805.94 644.233 3820.24 652.9C3834.97 661.567 3850.57 665.9 3867.04 665.9C3883.94 665.9 3899.75 661.783 3914.49 653.55C3929.22 644.883 3940.92 632.75 3949.59 617.15C3958.25 601.117 3962.59 582.05 3962.59 559.95ZM4234.11 259V740H4143.11V259H4234.11Z" fill="black"/>
<defs>
<linearGradient id="paint0_linear_20_339" x1="512" y1="0" x2="512" y2="1024" gradientUnits="userSpaceOnUse">
<stop stop-color="#5130AB"/>
<stop offset="1" stop-color="#3F3261"/>
</linearGradient>
</defs>
</svg>
